; generated by Slic3r 1.0.0RC3 on 2014-04-15 at 11:47:53

; layer_height = 0.24
; perimeters = 2
; top_solid_layers = 4
; bottom_solid_layers = 5
; fill_density = 0.3
; perimeter_speed = 20
; infill_speed = 20
; travel_speed = 80
; nozzle_diameter = 0.5
; filament_diameter = 1.75
; extrusion_multiplier = 1
; perimeters extrusion width = 0.50mm
; infill extrusion width = 0.87mm
; solid infill extrusion width = 0.85mm
; top infill extrusion width = 0.85mm
; support material extrusion width = 0.50mm
; first layer extrusion width = 0.48mm

G21 ; set units to millimeters
M107
M104 S200 ; set temperature
;start of fixed code
G21 ; set units to millimeters
G90 ; use absolute coordinates
M83 ; use relative distances for extrusion
M140 S70; Set bed temperature
G1 Z5 F200 ; lift nozzle
G1 X2 Y50 F2000; Go to wait for warm position
M116; Wait for all temperatures
G10 P0 S205 R0 ; Set extruder temperature
T0; Select extruder
M116; Wait for all temperatures   - end of fixed code
M109 S200 ; wait for temperature to be reached
G90 ; use absolute coordinates
M83 ; use relative distances for extrusion
G1 F1800.000 E-1.00000
G1 Z0.240 F4800.000
G1 X58.251 Y4.310 F4800.000
G1 E1.00000 F1800.000
G1 X58.541 Y2.990 E0.06743 F600.000
G1 X59.101 Y1.760 E0.06743
G1 X59.901 Y0.670 E0.06746
G1 X60.911 Y-0.230 E0.06749
G1 X62.081 Y-0.900 E0.06726
G1 X63.371 Y-1.320 E0.06768
G1 X64.711 Y-1.460 E0.06722
G1 X75.621 Y-1.460 E0.54430
G1 X77.441 Y-1.200 E0.09172
G1 X79.121 Y-0.440 E0.09199
G1 X111.241 Y20.080 E1.90157
G1 X112.171 Y20.800 E0.05868
G1 X112.951 Y21.670 E0.05829
G1 X153.471 Y75.910 E3.37777
G1 X154.171 Y77.100 E0.06888
G1 X154.611 Y78.420 E0.06942
G1 X154.761 Y79.800 E0.06925
G1 X154.761 Y108.860 E1.44981
G1 X154.621 Y110.190 E0.06672
G1 X154.211 Y111.470 E0.06706
G1 X153.551 Y112.640 E0.06702
G1 X120.371 Y159.130 E2.84953
G1 X119.701 Y159.920 E0.05168
G1 X118.511 Y161.130 E0.08467
G1 X118.071 Y161.530 E0.02967
G1 X78.761 Y194.250 E2.55167
G1 X77.501 Y195.070 E0.07500
G1 X76.091 Y195.580 E0.07481
G1 X74.601 Y195.750 E0.07482
G1 X64.711 Y195.750 E0.49341
G1 X63.371 Y195.610 E0.06722
G1 X62.081 Y195.190 E0.06768
G1 X60.911 Y194.520 E0.06726
G1 X59.901 Y193.620 E0.06749
G1 X59.101 Y192.540 E0.06705
G1 X58.541 Y191.310 E0.06743
G1 X58.251 Y189.990 E0.06743
G1 X55.261 Y163.840 E1.31313
G1 X55.221 Y163.100 E0.03697
G1 X55.221 Y31.370 E6.57204
G1 X55.261 Y30.640 E0.03647
G1 X58.242 Y4.385 E1.31831
G1 F1800.000 E-1.00000
G1 X75.651 Y5.225 F4800.000
G1 E1.00000 F1800.000
G1 X64.721 Y5.225 E0.52817 F600.000
G1 X64.721 Y6.193 E0.04680
G1 X75.780 Y6.193 E0.53441
G1 X75.909 Y7.162 E0.04722
G1 X64.721 Y7.162 E0.54065
G1 X64.721 Y8.130 E0.04680
G1 X76.038 Y8.130 E0.54689
G1 X76.167 Y9.099 E0.04722
G1 X64.721 Y9.099 E0.55313
G1 X64.721 Y10.068 E0.04680
G1 X76.297 Y10.068 E0.55937
G1 X76.426 Y11.036 E0.04722
G1 X64.721 Y11.036 E0.56561
G1 X64.721 Y12.005 E0.04680
G1 X76.555 Y12.005 E0.57185
G1 X76.684 Y12.973 E0.04722
G1 X64.721 Y12.973 E0.57809
G1 X64.721 Y13.942 E0.04680
G1 X76.813 Y13.942 E0.58434
G1 X76.942 Y14.911 E0.04722
G1 X64.721 Y14.911 E0.59058
G1 X64.721 Y15.879 E0.04680
G1 X77.071 Y15.879 E0.59682
G1 X77.201 Y16.848 E0.04722
G1 X64.721 Y16.848 E0.60306
G1 X64.721 Y17.816 E0.04680
G1 X77.330 Y17.816 E0.60930
G1 X77.459 Y18.785 E0.04722
G1 X64.721 Y18.785 E0.61554
G1 X64.721 Y19.753 E0.04680
G1 X77.588 Y19.753 E0.62178
G1 X77.717 Y20.722 E0.04722
G1 X64.721 Y20.722 E0.62802
G1 X64.721 Y21.691 E0.04680
G1 X77.846 Y21.691 E0.63426
G1 X77.975 Y22.659 E0.04722
G1 X64.721 Y22.659 E0.64050
G1 X64.721 Y23.628 E0.04680
G1 X78.105 Y23.628 E0.64674
G1 X78.234 Y24.596 E0.04722
G1 X64.721 Y24.596 E0.65298
G1 X64.721 Y25.565 E0.04680
G1 X78.363 Y25.565 E0.65922
G1 X78.492 Y26.534 E0.04722
G1 X64.721 Y26.534 E0.66546
G1 X64.721 Y27.502 E0.04680
G1 X78.621 Y27.502 E0.67170
G1 X78.750 Y28.471 E0.04722
G1 X64.721 Y28.471 E0.67794
G1 X64.721 Y29.439 E0.04680
G1 X78.879 Y29.439 E0.68419
G1 X79.009 Y30.408 E0.04722
G1 X62.187 Y30.408 E0.81285
G1 X61.721 Y31.377 E0.05195
G1 X79.138 Y31.377 E0.84164
G1 X79.267 Y32.345 E0.04722
G1 X61.721 Y32.345 E0.84788
G1 X61.721 Y33.314 E0.04680
G1 X79.396 Y33.314 E0.85412
G1 X79.525 Y34.282 E0.04722
G1 X61.721 Y34.282 E0.86036
G1 X61.721 Y35.251 E0.04680
G1 X110.305 Y35.251 E2.34774
G1 F1800.000 E-1.00000
G1 X112.308 Y36.219 F4800.000
G1 E1.00000 F1800.000
G1 X61.815 Y36.219 E2.43998 F600.000
G1 X62.783 Y37.188 E0.06619
G1 X113.609 Y37.188 E2.45604
G1 X114.606 Y38.157 E0.06718
G1 X64.721 Y38.157 E2.41061
G1 X64.721 Y39.125 E0.04680
G1 X115.435 Y39.125 E2.45065
G1 X116.087 Y40.094 E0.05642
G1 X64.675 Y40.094 E2.48435
G1 X63.985 Y41.062 E0.05748
G1 X116.591 Y41.062 E2.54209
G1 X117.027 Y42.031 E0.05133
G1 X63.548 Y42.031 E2.58426
G1 X63.300 Y43.000 E0.04832
G1 X117.306 Y43.000 E2.60976
G1 X117.558 Y43.968 E0.04835
G1 X106.712 Y43.968 E0.52409
G1 X105.749 Y43.968 F4800.000
G1 X80.712 Y43.968 E1.20987 F600.000
G1 X79.749 Y43.968 F4800.000
G1 X63.218 Y43.968 E0.79884 F600.000
G1 X63.294 Y44.937 E0.04695
G1 X117.656 Y44.937 E2.62691
G1 X117.731 Y45.905 E0.04694
G1 X63.532 Y45.905 E2.61905
G1 X63.950 Y46.874 E0.05098
G1 X117.731 Y46.874 E2.59885
G1 X117.731 Y47.842 E0.04680
G1 X64.615 Y47.842 E2.56671
G1 X64.721 Y48.811 E0.04708
G1 X117.731 Y48.811 E2.56160
G1 X117.731 Y49.780 E0.04680
G1 X64.721 Y49.780 E2.56160
G1 X64.721 Y50.748 E0.04680
G1 X117.731 Y50.748 E2.56160
G1 X117.731 Y51.717 E0.04680
G1 X64.721 Y51.717 E2.56160
G1 X64.721 Y52.685 E0.04680
G1 X117.731 Y52.685 E2.56160
G1 X117.731 Y53.654 E0.04680
G1 X64.721 Y53.654 E2.56160
G1 X64.721 Y54.623 E0.04680
G1 X117.731 Y54.623 E2.56160
G1 X117.731 Y55.591 E0.04680
G1 X64.721 Y55.591 E2.56160
G1 X64.721 Y56.560 E0.04680
G1 X117.731 Y56.560 E2.56160
G1 X117.731 Y57.528 E0.04680
G1 X64.721 Y57.528 E2.56160
G1 X64.721 Y58.497 E0.04680
G1 X117.731 Y58.497 E2.56160
G1 X117.731 Y59.465 E0.04680
G1 X64.721 Y59.465 E2.56160
G1 X64.721 Y60.434 E0.04680
G1 X117.731 Y60.434 E2.56160
G1 X117.731 Y61.403 E0.04680
G1 X85.324 Y61.403 E1.56597
G1 X85.781 Y62.371 F4800.000
G1 X117.731 Y62.371 E1.54390 F600.000
G1 X117.731 Y63.340 E0.04680
G1 X85.405 Y63.340 E1.56208
G1 X83.635 Y63.340 F4800.000
G1 X64.721 Y63.340 E0.91397 F600.000
G1 X64.721 Y64.308 E0.04680
G1 X117.731 Y64.308 E2.56160
G1 X117.731 Y65.277 E0.04680
G1 X64.721 Y65.277 E2.56160
G1 X64.721 Y66.246 E0.04680
G1 X117.731 Y66.246 E2.56160
G1 X117.731 Y67.214 E0.04680
G1 X64.721 Y67.214 E2.56160
G1 X64.721 Y68.183 E0.04680
G1 X117.731 Y68.183 E2.56160
G1 X117.731 Y69.151 E0.04680
G1 X64.721 Y69.151 E2.56160
G1 X64.721 Y70.120 E0.04680
G1 X117.731 Y70.120 E2.56160
G1 X117.731 Y71.088 E0.04680
G1 X64.721 Y71.088 E2.56160
G1 X64.721 Y72.057 E0.04680
G1 X117.731 Y72.057 E2.56160
G1 X117.731 Y73.026 E0.04680
G1 X64.721 Y73.026 E2.56160
G1 X64.721 Y73.994 E0.04680
G1 X117.731 Y73.994 E2.56160
G1 X117.731 Y74.963 E0.04680
G1 X64.721 Y74.963 E2.56160
G1 X64.721 Y75.931 E0.04680
G1 X117.731 Y75.931 E2.56160
G1 X117.731 Y76.900 E0.04680
G1 X64.721 Y76.900 E2.56160
G1 X64.721 Y77.869 E0.04680
G1 X117.731 Y77.869 E2.56160
G1 X117.731 Y78.837 E0.04680
G1 X64.721 Y78.837 E2.56160
G1 X64.721 Y79.806 E0.04680
G1 X117.731 Y79.806 E2.56160
G1 X117.731 Y80.774 E0.04680
G1 X64.721 Y80.774 E2.56160
G1 X64.721 Y81.743 E0.04680
G1 X117.731 Y81.743 E2.56160
G1 X117.731 Y82.711 E0.04680
G1 X64.721 Y82.711 E2.56160
G1 X64.721 Y83.680 E0.04680
G1 X117.731 Y83.680 E2.56160
G1 X117.731 Y84.649 E0.04680
G1 X64.721 Y84.649 E2.56160
G1 X64.721 Y85.617 E0.04680
G1 X117.731 Y85.617 E2.56160
G1 X117.731 Y86.586 E0.04680
G1 X64.721 Y86.586 E2.56160
G1 X64.721 Y87.554 E0.04680
G1 X117.731 Y87.554 E2.56160
G1 X117.731 Y88.523 E0.04680
G1 X61.721 Y88.523 E2.70656
G1 X61.721 Y89.492 E0.04680
G1 X117.731 Y89.492 E2.70656
G1 X117.731 Y90.460 E0.04680
G1 X61.721 Y90.460 E2.70656
G1 X61.721 Y91.429 E0.04680
G1 X117.731 Y91.429 E2.70656
G1 X117.731 Y92.397 E0.04680
G1 X61.721 Y92.397 E2.70656
G1 X61.721 Y93.366 E0.04680
G1 X117.731 Y93.366 E2.70656
G1 X117.731 Y94.334 E0.04680
G1 X61.721 Y94.334 E2.70656
G1 X61.721 Y95.303 E0.04680
G1 X117.731 Y95.303 E2.70656
G1 X117.731 Y96.272 E0.04680
G1 X61.721 Y96.272 E2.70656
G1 X61.721 Y98.209 F4800.000
G1 X117.731 Y98.209 E2.70656 F600.000
G1 X117.731 Y99.177 E0.04680
G1 X61.721 Y99.177 E2.70656
G1 X61.721 Y100.146 E0.04680
G1 X117.731 Y100.146 E2.70656
G1 X117.731 Y101.115 E0.04680
G1 X61.721 Y101.115 E2.70656
G1 X61.721 Y102.083 E0.04680
G1 X117.731 Y102.083 E2.70656
G1 X117.731 Y103.052 E0.04680
G1 X61.721 Y103.052 E2.70656
G1 X61.721 Y104.020 E0.04680
G1 X117.731 Y104.020 E2.70656
G1 X117.731 Y104.989 E0.04680
G1 X61.721 Y104.989 E2.70656
G1 X61.721 Y105.957 E0.04680
G1 X117.731 Y105.957 E2.70656
G1 X117.731 Y106.926 E0.04680
G1 X64.721 Y106.926 E2.56160
G1 X64.721 Y107.895 E0.04680
G1 X117.731 Y107.895 E2.56160
G1 X117.731 Y108.863 E0.04680
G1 X64.721 Y108.863 E2.56160
G1 X64.721 Y109.832 E0.04680
G1 X117.731 Y109.832 E2.56160
G1 X117.731 Y110.800 E0.04680
G1 X64.721 Y110.800 E2.56160
G1 X64.721 Y111.769 E0.04680
G1 X117.731 Y111.769 E2.56160
G1 X117.731 Y112.738 E0.04680
G1 X64.721 Y112.738 E2.56160
G1 X64.721 Y113.706 E0.04680
G1 X117.731 Y113.706 E2.56160
G1 X117.731 Y114.675 E0.04680
G1 X64.721 Y114.675 E2.56160
G1 X64.721 Y115.643 E0.04680
G1 X117.731 Y115.643 E2.56160
G1 X117.731 Y116.612 E0.04680
G1 X64.721 Y116.612 E2.56160
G1 X64.721 Y117.580 E0.04680
G1 X117.731 Y117.580 E2.56160
G1 X117.731 Y118.549 E0.04680
G1 X64.721 Y118.549 E2.56160
G1 X64.721 Y119.518 E0.04680
G1 X117.731 Y119.518 E2.56160
G1 X117.731 Y120.486 E0.04680
G1 X64.721 Y120.486 E2.56160
G1 X64.721 Y121.455 E0.04680
G1 X117.731 Y121.455 E2.56160
G1 X117.731 Y122.423 E0.04680
G1 X64.721 Y122.423 E2.56160
G1 X64.721 Y123.392 E0.04680
G1 X117.731 Y123.392 E2.56160
G1 X117.731 Y124.361 E0.04680
G1 X64.721 Y124.361 E2.56160
G1 X64.721 Y125.329 E0.04680
G1 X117.731 Y125.329 E2.56160
G1 X117.731 Y126.298 E0.04680
G1 X64.721 Y126.298 E2.56160
G1 X64.721 Y127.266 E0.04680
G1 X117.731 Y127.266 E2.56160
G1 X117.731 Y128.235 E0.04680
G1 X64.721 Y128.235 E2.56160
G1 X64.721 Y129.203 E0.04680
G1 X117.731 Y129.203 E2.56160
G1 X117.731 Y130.172 E0.04680
G1 X64.721 Y130.172 E2.56160
G1 X64.721 Y131.141 E0.04680
G1 X117.731 Y131.141 E2.56160
G1 X117.731 Y132.109 E0.04680
G1 X64.721 Y132.109 E2.56160
G1 X64.721 Y133.078 E0.04680
G1 X117.731 Y133.078 E2.56160
G1 X117.731 Y134.046 E0.04680
G1 X64.721 Y134.046 E2.56160
G1 X64.721 Y135.015 E0.04680
G1 X117.731 Y135.015 E2.56160
G1 X117.731 Y135.984 E0.04680
G1 X64.721 Y135.984 E2.56160
G1 X64.721 Y136.952 E0.04680
G1 X117.731 Y136.952 E2.56160
G1 X117.731 Y137.921 E0.04680
G1 X64.721 Y137.921 E2.56160
G1 X64.721 Y138.889 E0.04680
G1 X117.731 Y138.889 E2.56160
G1 X117.731 Y139.858 E0.04680
G1 X64.721 Y139.858 E2.56160
G1 X64.721 Y140.827 E0.04680
G1 X117.731 Y140.827 E2.56160
G1 X117.731 Y141.795 E0.04680
G1 X64.721 Y141.795 E2.56160
G1 X64.721 Y142.764 E0.04680
G1 X117.731 Y142.764 E2.56160
G1 X117.731 Y143.732 E0.04680
G1 X64.721 Y143.732 E2.56160
G1 X64.721 Y144.701 E0.04680
G1 X117.731 Y144.701 E2.56160
G1 X117.731 Y145.669 E0.04680
G1 X64.721 Y145.669 E2.56160
G1 X64.721 Y146.638 E0.04680
G1 X117.731 Y146.638 E2.56160
G1 X117.731 Y147.607 E0.04680
G1 X64.721 Y147.607 E2.56160
G1 X64.721 Y148.575 E0.04680
G1 X117.696 Y148.575 E2.55993
G1 X117.611 Y149.544 E0.04698
G1 X64.721 Y149.544 E2.55583
G1 X64.721 Y150.512 E0.04680
G1 X117.434 Y150.512 E2.54727
G1 X117.175 Y151.481 E0.04846
G1 X64.721 Y151.481 E2.53472
G1 X64.721 Y152.450 E0.04680
G1 X116.814 Y152.450 E2.51729
G1 X116.362 Y153.418 E0.05164
G1 X64.721 Y153.418 E2.49546
G1 X64.721 Y154.387 E0.04680
G1 X115.763 Y154.387 E2.46653
G1 X115.085 Y155.355 E0.05714
G1 X64.721 Y155.355 E2.43375
G1 X64.721 Y156.324 E0.04680
G1 X114.131 Y156.324 E2.38763
G1 X112.961 Y157.292 E0.07340
G1 X62.303 Y157.292 E2.44792
G1 X61.721 Y158.261 E0.05461
G1 X111.371 Y158.261 E2.39924
G1 F1800.000 E-1.00000
G1 X108.646 Y159.230 F4800.000
G1 E1.00000 F1800.000
G1 X61.721 Y159.230 E2.26754 F600.000
G1 X61.721 Y160.198 E0.04680
G1 X79.399 Y160.198 E0.85424
G1 X79.239 Y161.167 E0.04744
G1 X61.721 Y161.167 E0.84652
G1 X61.721 Y162.135 E0.04680
G1 X79.079 Y162.135 E0.83880
G1 X78.919 Y163.104 E0.04744
G1 X61.721 Y163.104 E0.83108
G1 X62.668 Y164.073 E0.06546
G1 X78.759 Y164.073 E0.77759
G1 X78.600 Y165.041 E0.04744
G1 X64.721 Y165.041 E0.67066
G1 X64.721 Y166.010 E0.04680
G1 X78.440 Y166.010 E0.66294
G1 X78.280 Y166.978 E0.04744
G1 X64.721 Y166.978 E0.65522
G1 X64.721 Y167.947 E0.04680
G1 X78.120 Y167.947 E0.64750
G1 X77.960 Y168.915 E0.04744
G1 X64.721 Y168.915 E0.63978
G1 X64.721 Y169.884 E0.04680
G1 X77.801 Y169.884 E0.63205
G1 X77.641 Y170.853 E0.04744
G1 X64.721 Y170.853 E0.62433
G1 X64.721 Y171.821 E0.04680
G1 X77.481 Y171.821 E0.61661
G1 X77.321 Y172.790 E0.04744
G1 X64.721 Y172.790 E0.60889
G1 X64.721 Y173.758 E0.04680
G1 X77.161 Y173.758 E0.60117
G1 X77.002 Y174.727 E0.04744
G1 X64.721 Y174.727 E0.59344
G1 X64.721 Y175.696 E0.04680
G1 X76.842 Y175.696 E0.58572
G1 X76.682 Y176.664 E0.04744
G1 X64.721 Y176.664 E0.57800
G1 X64.721 Y177.633 E0.04680
G1 X76.522 Y177.633 E0.57028
G1 X76.362 Y178.601 E0.04744
G1 X64.721 Y178.601 E0.56256
G1 X64.721 Y179.570 E0.04680
G1 X76.203 Y179.570 E0.55484
G1 X76.043 Y180.538 E0.04744
G1 X64.721 Y180.538 E0.54711
G1 X64.721 Y181.507 E0.04680
G1 X75.883 Y181.507 E0.53939
G1 X75.723 Y182.476 E0.04744
G1 X64.721 Y182.476 E0.53167
G1 X64.721 Y183.444 E0.04680
G1 X75.563 Y183.444 E0.52395
G1 X75.404 Y184.413 E0.04744
G1 X64.721 Y184.413 E0.51623
G1 X64.721 Y185.381 E0.04680
G1 X75.244 Y185.381 E0.50850
G1 X75.084 Y186.350 E0.04744
G1 X64.721 Y186.350 E0.50078
G1 X64.721 Y187.319 E0.04680
G1 X74.924 Y187.319 E0.49306
G1 X74.764 Y188.287 E0.04744
G1 X64.721 Y188.287 E0.48534
G1 X64.721 Y189.256 E0.04680
G1 X74.605 Y189.256 E0.47762
G1 F1800.000 E-1.00000
G1 X71.818 Y97.240 F4800.000
G1 E1.00000 F1800.000
G1 X117.731 Y97.240 E2.21864 F600.000
G1 F1800.000 E-1.00000
G1 X126.259 Y79.806 F4800.000
G1 E1.00000 F1800.000
G1 X148.269 Y79.806 E1.06359 F600.000
G1 X148.269 Y80.774 E0.04680
G1 X126.259 Y80.774 E1.06359
G1 X126.259 Y81.743 E0.04680
G1 X148.269 Y81.743 E1.06359
G1 X148.269 Y82.711 E0.04680
G1 X126.259 Y82.711 E1.06359
G1 X126.259 Y83.680 E0.04680
G1 X148.269 Y83.680 E1.06359
G1 X148.269 Y84.649 E0.04680
G1 X126.259 Y84.649 E1.06359
G1 X126.259 Y85.617 E0.04680
G1 X148.269 Y85.617 E1.06359
G1 X148.269 Y86.586 E0.04680
G1 X126.259 Y86.586 E1.06359
G1 X126.259 Y87.554 E0.04680
G1 X148.269 Y87.554 E1.06359
G1 X148.269 Y88.523 E0.04680
G1 X126.259 Y88.523 E1.06359
G1 X126.259 Y89.492 E0.04680
G1 X148.269 Y89.492 E1.06359
G1 X148.269 Y90.460 E0.04680
G1 X126.259 Y90.460 E1.06359
G1 X126.259 Y91.429 E0.04680
G1 X148.269 Y91.429 E1.06359
G1 X148.269 Y92.397 E0.04680
G1 X126.259 Y92.397 E1.06359
G1 X126.259 Y93.366 E0.04680
G1 X148.269 Y93.366 E1.06359
G1 X148.269 Y94.334 E0.04680
G1 X126.259 Y94.334 E1.06359
G1 X126.259 Y95.303 E0.04680
G1 X148.269 Y95.303 E1.06359
G1 X148.269 Y96.272 E0.04680
G1 X126.259 Y96.272 E1.06359
G1 X126.259 Y97.240 E0.04680
G1 X148.269 Y97.240 E1.06359
G1 X148.269 Y98.209 E0.04680
G1 X126.259 Y98.209 E1.06359
G1 X126.259 Y99.177 E0.04680
G1 X148.269 Y99.177 E1.06359
G1 X148.269 Y100.146 E0.04680
G1 X126.259 Y100.146 E1.06359
G1 X126.259 Y101.115 E0.04680
G1 X148.269 Y101.115 E1.06359
G1 X148.269 Y102.083 E0.04680
G1 X126.259 Y102.083 E1.06359
G1 X126.259 Y103.052 E0.04680
G1 X148.269 Y103.052 E1.06359
G1 X148.269 Y104.020 E0.04680
G1 X126.259 Y104.020 E1.06359
G1 X126.259 Y104.989 E0.04680
G1 X148.269 Y104.989 E1.06359
G1 X148.269 Y105.957 E0.04680
G1 X126.259 Y105.957 E1.06359
G1 X126.259 Y106.926 E0.04680
G1 X148.269 Y106.926 E1.06359
G1 X148.269 Y107.895 E0.04680
G1 X126.259 Y107.895 E1.06359
G1 X126.259 Y108.863 E0.04680
G1 X148.269 Y108.863 E1.06359
G1 F1800.000 E-1.00000
G1 X83.259 Y62.371 F4800.000
G1 E1.00000 F1800.000
G1 X64.721 Y62.371 E0.89580 F600.000
G1 X64.721 Y61.403 E0.04680
G1 X83.715 Y61.403 E0.91786
G1 F1800.000 E-1.00000
G1 X100.721 Y34.282 F4800.000
G1 E1.00000 F1800.000
