; generated by Slic3r 1.0.0RC3 on 2014-03-28 at 19:49:04

; layer_height = 0.24
; perimeters = 2
; top_solid_layers = 4
; bottom_solid_layers = 5
; fill_density = 0.3
; perimeter_speed = 20
; infill_speed = 20
; travel_speed = 80
; nozzle_diameter = 0.5
; filament_diameter = 1.75
; extrusion_multiplier = 1
; perimeters extrusion width = 0.50mm
; infill extrusion width = 0.87mm
; solid infill extrusion width = 0.85mm
; top infill extrusion width = 0.85mm
; first layer extrusion width = 0.48mm

G21 ; set units to millimeters
M107
M104 S200 ; set temperature
G21 ; set units to millimeters
G90 ; use absolute coordinates
M83 ; use relative distances for extrusion
M140 S55; Set bed temperature
G1 Z5 F200 ; lift nozzle
G1 X2 Y50 F2000; Go to wait for warm position
M116; Wait for all temperatures
G10 P0 S205 R0 ; Set extruder temperature
T0; Select extruder
M116; Wait for all temperatures
M109 S200 ; wait for temperature to be reached
G90 ; use absolute coordinates
M83 ; use relative distances for extrusion
G1 F1800.000 E-1.00000
G1 Z0.240 F4800.000
G1 X58.592 Y42.280 F4800.000
G1 E1.00000 F1800.000
G1 X59.612 Y41.320 E0.06769 F600.000
G1 X60.802 Y40.610 E0.06696
G1 X62.122 Y40.170 E0.06724
G1 X63.512 Y40.020 E0.06756
G1 X133.902 Y40.020 E3.40145
G1 X135.262 Y40.160 E0.06607
G1 X136.572 Y40.590 E0.06663
G1 X137.752 Y41.280 E0.06605
G1 X138.762 Y42.210 E0.06635
G1 X139.552 Y43.330 E0.06623
G1 X140.102 Y44.590 E0.06643
G1 X140.362 Y45.930 E0.06596
G1 X149.432 Y148.810 E4.99074
G1 X149.452 Y149.380 E0.02756
G1 X149.452 Y151.500 E0.10244
G1 X149.332 Y152.750 E0.06068
G1 X148.982 Y153.950 E0.06040
G1 X148.392 Y155.050 E0.06032
G1 X147.612 Y156.030 E0.06053
G1 X146.652 Y156.840 E0.06070
G1 X145.562 Y157.440 E0.06012
G1 X144.372 Y157.830 E0.06051
G1 X143.132 Y157.980 E0.06036
G1 X60.622 Y159.980 E3.98829
G1 X57.022 Y159.980 E0.17396
G1 X55.752 Y159.860 E0.06164
G1 X54.542 Y159.490 E0.06114
G1 X53.422 Y158.890 E0.06140
G1 X52.432 Y158.090 E0.06151
G1 X51.632 Y157.100 E0.06151
G1 X51.032 Y155.980 E0.06140
G1 X50.662 Y154.770 E0.06114
G1 X50.542 Y153.500 E0.06164
G1 X50.552 Y148.970 E0.21890
G1 X57.042 Y46.090 E4.98134
G1 X57.282 Y44.720 E0.06721
G1 X57.802 Y43.430 E0.06721
G1 X58.551 Y42.340 E0.06391
G1 F1800.000 E-1.00000
G1 X57.262 Y149.620 F4800.000
G1 E1.00000 F1800.000
G1 X142.738 Y149.620 E4.13041 F420.000
G1 X142.738 Y151.260 E0.07925
G1 X60.231 Y151.260 E3.98695
G1 X60.231 Y153.260 E0.09665
G1 X57.262 Y153.260 E0.14346
G1 X57.262 Y149.693 E0.17238
G1 X57.682 Y149.862 F4800.000
G1 X142.253 Y150.776 F4800.000
G1 X59.747 Y150.776 E3.98695 F600.000
G1 X59.747 Y152.776 E0.09665
G1 X57.747 Y152.776 E0.09666
G1 X57.747 Y150.104 E0.12909
G1 X142.253 Y150.104 E4.08361
G1 X142.253 Y150.703 E0.02893
G1 X59.144 Y150.445 F4800.000
G1 X59.164 Y150.465 E0.00151 F600.000
G1 X59.406 Y151.464 E0.05482
G1 X58.387 Y150.445 E0.07685
G1 X58.088 Y150.902 E0.02914
G1 X59.406 Y152.220 E0.09947
G1 X58.864 Y152.435 E0.03109
G1 X58.088 Y151.658 E0.05858
G1 X58.088 Y152.415 E0.04036
G1 X58.108 Y152.435 E0.00151
G1 F1800.000 E-1.00000
G1 X71.083 Y150.443 F4800.000
G1 E1.00000 F1800.000
G1 X71.484 Y150.432 E0.01161 F300.000
G1 X71.504 Y150.453 E0.00085 F300.000
G1 X71.895 Y150.432 E0.01132 F300.000
G1 X71.915 Y150.453 E0.00085 F300.000
G1 X72.305 Y150.432 E0.01132 F300.000
G1 X72.326 Y150.453 E0.00085 F300.000
G1 X72.716 Y150.432 E0.01132 F300.000
G1 X72.737 Y150.453 E0.00085 F300.000
G1 X73.127 Y150.432 E0.01132 F300.000
G1 X73.148 Y150.453 E0.00085 F300.000
G1 X73.538 Y150.432 E0.01132 F300.000
G1 X73.559 Y150.453 E0.00085 F300.000
G1 X73.949 Y150.432 E0.01132 F300.000
G1 X73.959 Y150.443 E0.00043 F300.000
G1 X71.094 Y150.453 F4800.000
G1 X71.083 Y150.443 E0.00043 F300.000
G1 X129.973 Y150.443 F4800.000
G1 X130.374 Y150.432 E0.01161 F300.000
G1 X130.394 Y150.453 E0.00085 F300.000
G1 X130.785 Y150.432 E0.01132 F300.000
G1 X130.805 Y150.453 E0.00085 F300.000
G1 X131.195 Y150.432 E0.01132 F300.000
G1 X131.216 Y150.453 E0.00085 F300.000
G1 X131.606 Y150.432 E0.01132 F300.000
G1 X131.627 Y150.453 E0.00085 F300.000
G1 X132.017 Y150.432 E0.01132 F300.000
G1 X132.038 Y150.453 E0.00085 F300.000
G1 X132.428 Y150.432 E0.01132 F300.000
G1 X132.449 Y150.453 E0.00085 F300.000
G1 X132.839 Y150.432 E0.01132 F300.000
G1 X132.849 Y150.443 E0.00043 F300.000
G1 X129.984 Y150.453 F4800.000
G1 X129.973 Y150.443 E0.00043 F300.000
G1 F1800.000 E-1.00000
G1 X129.151 Y116.863 F4800.000
G1 E1.00000 F1800.000
G1 X129.151 Y112.757 E0.19845 F420.000
G1 X68.281 Y112.757 E2.94141
G1 X68.281 Y115.028 E0.10975
G1 X63.761 Y115.028 E0.21842
G1 X63.761 Y46.740 E3.29986
G1 X133.671 Y46.740 E3.37825
G1 X133.671 Y116.863 E3.38856
G1 X129.224 Y116.863 E0.21491
G1 X129.393 Y116.444 F4800.000
G1 X129.636 Y116.379 F4800.000
G1 X129.636 Y112.272 E0.19845 F600.000
G1 X67.797 Y112.272 E2.98822
G1 X67.797 Y114.544 E0.10975
G1 X64.246 Y114.544 E0.17161
G1 X64.246 Y47.224 E3.25306
G1 X133.187 Y47.224 E3.33145
G1 X133.187 Y116.379 E3.34176
G1 X129.708 Y116.379 E0.16810
G1 X129.151 Y96.055 F4800.000
G1 X68.281 Y96.055 E2.94141 F420.000
G1 X68.281 Y61.260 E1.68138
G1 X129.151 Y61.260 E2.94141
G1 X129.151 Y95.982 E1.67787
G1 X129.151 Y96.539 F4800.000
G1 X129.636 Y96.539 F4800.000
G1 X67.797 Y96.539 E2.98822 F600.000
G1 X67.797 Y60.776 E1.72819
G1 X129.636 Y60.776 E2.98822
G1 X129.636 Y96.466 E1.72468
G1 X132.911 Y57.500 F4800.000
G1 X80.197 Y55.107 F4800.000
G1 X79.983 Y55.321 E0.01466 F600.000
G1 X79.734 Y55.496 E0.01466
G1 X79.459 Y55.624 E0.01467
G1 X79.135 Y55.705 E0.01616
G1 X78.864 Y55.729 E0.01314
G1 X78.562 Y55.702 E0.01466
G1 X78.268 Y55.624 E0.01467
G1 X77.993 Y55.496 E0.01466
G1 X77.745 Y55.321 E0.01466
G1 X77.530 Y55.107 E0.01466
G1 X77.343 Y54.830 E0.01616
G1 X77.228 Y54.583 E0.01314
G1 X77.149 Y54.290 E0.01466
G1 X77.123 Y53.988 E0.01466
G1 X77.149 Y53.686 E0.01466
G1 X77.228 Y53.392 E0.01466
G1 X77.356 Y53.117 E0.01466
G1 X77.530 Y52.869 E0.01466
G1 X77.745 Y52.654 E0.01466
G1 X78.022 Y52.467 E0.01616
G1 X78.268 Y52.352 E0.01314
G1 X78.562 Y52.273 E0.01466
G1 X78.864 Y52.247 E0.01466
G1 X79.166 Y52.273 E0.01466
G1 X79.459 Y52.352 E0.01466
G1 X79.734 Y52.480 E0.01466
G1 X79.983 Y52.654 E0.01467
G1 X80.197 Y52.869 E0.01466
G1 X80.372 Y53.117 E0.01466
G1 X80.500 Y53.392 E0.01467
G1 X80.578 Y53.686 E0.01466
G1 X80.605 Y53.988 E0.01466
G1 X80.578 Y54.290 E0.01466
G1 X80.500 Y54.583 E0.01466
G1 X80.372 Y54.858 E0.01466
G1 X80.239 Y55.047 E0.01115
G1 X80.293 Y55.395 F4800.000
G1 X80.518 Y55.472 F4800.000
G1 X80.295 Y55.694 E0.01519 F600.000
G1 X79.977 Y55.917 E0.01876
G1 X79.625 Y56.081 E0.01876
G1 X79.251 Y56.181 E0.01876
G1 X78.864 Y56.215 E0.01876
G1 X78.477 Y56.181 E0.01876
G1 X78.102 Y56.081 E0.01876
G1 X77.750 Y55.917 E0.01876
G1 X77.432 Y55.694 E0.01876
G1 X77.158 Y55.419 E0.01876
G1 X76.904 Y55.034 E0.02228
G1 X76.771 Y54.750 E0.01519
G1 X76.671 Y54.375 E0.01876
G1 X76.637 Y53.988 E0.01876
G1 X76.671 Y53.601 E0.01876
G1 X76.771 Y53.226 E0.01876
G1 X76.935 Y52.874 E0.01876
G1 X77.158 Y52.556 E0.01876
G1 X77.432 Y52.282 E0.01876
G1 X77.817 Y52.028 E0.02228
G1 X78.102 Y51.895 E0.01519
G1 X78.477 Y51.795 E0.01876
G1 X78.864 Y51.761 E0.01876
G1 X79.251 Y51.795 E0.01876
G1 X79.626 Y51.895 E0.01876
G1 X79.977 Y52.059 E0.01876
G1 X80.295 Y52.282 E0.01876
G1 X80.570 Y52.556 E0.01876
G1 X80.793 Y52.874 E0.01876
G1 X80.957 Y53.226 E0.01876
G1 X81.057 Y53.601 E0.01876
G1 X81.091 Y53.988 E0.01876
G1 X81.057 Y54.375 E0.01876
G1 X80.957 Y54.750 E0.01876
G1 X80.793 Y55.101 E0.01876
G1 X80.569 Y55.420 E0.01881
G1 X117.044 Y53.988 F4800.000
G1 X117.070 Y53.686 E0.01466 F600.000
G1 X117.149 Y53.392 E0.01466
G1 X117.277 Y53.117 E0.01466
G1 X117.473 Y52.847 E0.01616
G1 X117.665 Y52.654 E0.01315
G1 X117.914 Y52.480 E0.01466
G1 X118.189 Y52.352 E0.01466
G1 X118.482 Y52.273 E0.01466
G1 X118.784 Y52.247 E0.01467
G1 X119.117 Y52.281 E0.01616
G1 X119.380 Y52.352 E0.01314
G1 X119.655 Y52.480 E0.01466
G1 X119.904 Y52.654 E0.01466
G1 X120.118 Y52.869 E0.01466
G1 X120.292 Y53.117 E0.01466
G1 X120.420 Y53.392 E0.01466
G1 X120.499 Y53.686 E0.01466
G1 X120.525 Y53.988 E0.01466
G1 X120.499 Y54.290 E0.01466
G1 X120.420 Y54.583 E0.01466
G1 X120.292 Y54.858 E0.01466
G1 X120.118 Y55.107 E0.01466
G1 X119.903 Y55.321 E0.01466
G1 X119.655 Y55.496 E0.01466
G1 X119.380 Y55.624 E0.01466
G1 X119.087 Y55.702 E0.01466
G1 X118.784 Y55.729 E0.01466
G1 X118.482 Y55.702 E0.01466
G1 X118.189 Y55.624 E0.01466
G1 X117.914 Y55.496 E0.01466
G1 X117.665 Y55.321 E0.01466
G1 X117.451 Y55.107 E0.01466
G1 X117.277 Y54.858 E0.01466
G1 X117.149 Y54.583 E0.01466
G1 X117.070 Y54.290 E0.01466
G1 X117.050 Y54.060 E0.01115
G1 X116.785 Y53.829 F4800.000
G1 X116.564 Y53.914 F4800.000
G1 X116.591 Y53.601 E0.01519 F600.000
G1 X116.692 Y53.226 E0.01876
G1 X116.856 Y52.874 E0.01876
G1 X117.078 Y52.556 E0.01876
G1 X117.353 Y52.282 E0.01876
G1 X117.671 Y52.059 E0.01876
G1 X118.023 Y51.895 E0.01876
G1 X118.398 Y51.795 E0.01876
G1 X118.784 Y51.761 E0.01876
G1 X119.171 Y51.795 E0.01876
G1 X119.546 Y51.895 E0.01876
G1 X119.898 Y52.059 E0.01876
G1 X120.216 Y52.282 E0.01876
G1 X120.490 Y52.556 E0.01876
G1 X120.713 Y52.874 E0.01876
G1 X120.877 Y53.226 E0.01876
G1 X120.978 Y53.601 E0.01876
G1 X121.012 Y53.988 E0.01876
G1 X120.978 Y54.375 E0.01876
G1 X120.877 Y54.750 E0.01876
G1 X120.713 Y55.101 E0.01876
G1 X120.490 Y55.419 E0.01876
G1 X120.216 Y55.694 E0.01876
G1 X119.898 Y55.917 E0.01876
G1 X119.546 Y56.081 E0.01876
G1 X119.171 Y56.181 E0.01876
G1 X118.784 Y56.215 E0.01876
G1 X118.398 Y56.181 E0.01876
G1 X118.023 Y56.081 E0.01876
G1 X117.671 Y55.917 E0.01876
G1 X117.353 Y55.694 E0.01876
G1 X117.078 Y55.419 E0.01876
G1 X116.856 Y55.101 E0.01876
G1 X116.692 Y54.750 E0.01876
G1 X116.591 Y54.375 E0.01876
G1 X116.558 Y53.987 E0.01881
G1 X116.250 Y54.383 F4800.000
G1 X109.432 Y47.565 E0.46802 F600.000
G1 X110.120 Y47.565 E0.03340
G1 X116.241 Y53.686 E0.42022
G1 X116.366 Y53.123 E0.02801
G1 X110.808 Y47.565 E0.38155
G1 X111.497 Y47.565 E0.03340
G1 X116.591 Y52.659 E0.34972
G1 X116.886 Y52.267 E0.02385
G1 X112.185 Y47.565 E0.32275
G1 X112.873 Y47.565 E0.03340
G1 X117.247 Y51.940 E0.30031
G1 X117.676 Y51.681 E0.02433
G1 X113.561 Y47.565 E0.28252
G1 X114.249 Y47.565 E0.03340
G1 X118.182 Y51.499 E0.27007
G1 X118.790 Y51.419 E0.02976
G1 X114.937 Y47.565 E0.26455
G1 X115.625 Y47.565 E0.03340
G1 X119.622 Y51.562 E0.27439
G1 X132.826 Y47.565 F4800.000
G1 X132.846 Y47.585 E0.00137 F600.000
G1 X132.846 Y48.273 E0.03340
G1 X132.138 Y47.565 E0.04861
G1 X131.450 Y47.565 E0.03340
G1 X132.846 Y48.961 E0.09584
G1 X132.846 Y49.649 E0.03340
G1 X130.762 Y47.565 E0.14308
G1 X130.074 Y47.565 E0.03340
G1 X132.846 Y50.338 E0.19032
G1 X132.846 Y51.026 E0.03340
G1 X129.386 Y47.565 E0.23755
G1 X128.698 Y47.565 E0.03340
G1 X132.846 Y51.714 E0.28479
G1 X132.846 Y52.402 E0.03340
G1 X128.010 Y47.565 E0.33203
G1 X127.321 Y47.565 E0.03340
G1 X132.846 Y53.090 E0.37926
G1 X132.846 Y53.778 E0.03340
G1 X126.633 Y47.565 E0.42650
G1 X125.945 Y47.565 E0.03340
G1 X132.846 Y54.466 E0.47374
G1 X132.846 Y55.154 E0.03340
G1 X125.257 Y47.565 E0.52097
G1 X124.569 Y47.565 E0.03340
G1 X132.846 Y55.842 E0.56821
G1 X132.846 Y56.530 E0.03340
G1 X123.881 Y47.565 E0.61544
G1 X123.193 Y47.565 E0.03340
G1 X132.846 Y57.218 E0.66268
G1 X132.846 Y57.906 E0.03340
G1 X122.505 Y47.565 E0.70992
G1 X121.817 Y47.565 E0.03340
G1 X132.846 Y58.594 E0.75715
G1 X132.846 Y59.282 E0.03340
G1 X121.129 Y47.565 E0.80439
G1 X120.441 Y47.565 E0.03340
G1 X132.846 Y59.970 E0.85163
G1 X132.846 Y60.658 E0.03340
G1 X119.753 Y47.565 E0.89886
G1 X119.065 Y47.565 E0.03340
G1 X132.846 Y61.346 E0.94610
G1 X132.846 Y62.034 E0.03340
G1 X118.377 Y47.565 E0.99333
G1 X117.689 Y47.565 E0.03340
G1 X132.846 Y62.722 E1.04057
G1 X129.977 Y112.832 F4800.000
G1 X132.846 Y115.702 E0.19698 F600.000
G1 X132.494 Y116.038 E0.02362
G1 X129.977 Y113.520 E0.17285
G1 X129.977 Y114.208 E0.03340
G1 X131.806 Y116.038 E0.12561
G1 X131.118 Y116.038 E0.03340
G1 X129.977 Y114.896 E0.07837
G1 X129.977 Y115.585 E0.03340
G1 X130.430 Y116.038 E0.03114
G1 X132.911 Y107.500 F4800.000
G1 X83.665 Y111.931 F4800.000
G1 X68.614 Y96.880 E1.03331 F600.000
G1 X69.302 Y96.880 E0.03340
G1 X84.353 Y111.931 E1.03331
G1 X85.041 Y111.931 E0.03340
G1 X69.990 Y96.880 E1.03331
G1 X70.678 Y96.880 E0.03340
G1 X85.729 Y111.931 E1.03331
G1 X86.417 Y111.931 E0.03340
G1 X71.366 Y96.880 E1.03331
G1 X72.054 Y96.880 E0.03340
G1 X87.105 Y111.931 E1.03331
G1 X87.793 Y111.931 E0.03340
G1 X72.742 Y96.880 E1.03331
G1 X73.430 Y96.880 E0.03340
G1 X88.481 Y111.931 E1.03331
G1 X89.169 Y111.931 E0.03340
G1 X74.118 Y96.880 E1.03331
G1 X74.806 Y96.880 E0.03340
G1 X89.857 Y111.931 E1.03331
G1 X90.545 Y111.931 E0.03340
G1 X75.494 Y96.880 E1.03331
G1 X76.182 Y96.880 E0.03340
G1 X91.233 Y111.931 E1.03331
G1 X91.921 Y111.931 E0.03340
G1 X76.870 Y96.880 E1.03331
G1 X77.558 Y96.880 E0.03340
G1 X92.609 Y111.931 E1.03331
G1 X93.297 Y111.931 E0.03340
G1 X78.246 Y96.880 E1.03331
G1 X78.934 Y96.880 E0.03340
G1 X93.985 Y111.931 E1.03331
G1 X94.673 Y111.931 E0.03340
G1 X79.622 Y96.880 E1.03331
G1 X80.310 Y96.880 E0.03340
G1 X95.361 Y111.931 E1.03331
G1 X96.050 Y111.931 E0.03340
G1 X80.998 Y96.880 E1.03331
G1 X81.686 Y96.880 E0.03340
G1 X96.738 Y111.931 E1.03331
G1 X97.426 Y111.931 E0.03340
G1 X82.374 Y96.880 E1.03331
G1 X83.062 Y96.880 E0.03340
G1 X98.114 Y111.931 E1.03331
G1 X98.802 Y111.931 E0.03340
G1 X83.751 Y96.880 E1.03331
G1 X84.439 Y96.880 E0.03340
G1 X99.490 Y111.931 E1.03331
G1 X100.178 Y111.931 E0.03340
G1 X85.127 Y96.880 E1.03331
G1 X85.815 Y96.880 E0.03340
G1 X100.866 Y111.931 E1.03331
G1 X101.554 Y111.931 E0.03340
G1 X86.503 Y96.880 E1.03331
G1 X87.191 Y96.880 E0.03340
G1 X102.242 Y111.931 E1.03331
G1 X102.930 Y111.931 E0.03340
G1 X87.879 Y96.880 E1.03331
G1 X88.567 Y96.880 E0.03340
G1 X103.618 Y111.931 E1.03331
G1 X104.306 Y111.931 E0.03340
G1 X89.255 Y96.880 E1.03331
G1 X89.943 Y96.880 E0.03340
G1 X104.994 Y111.931 E1.03331
G1 X105.682 Y111.931 E0.03340
G1 X90.631 Y96.880 E1.03331
G1 X91.319 Y96.880 E0.03340
G1 X106.370 Y111.931 E1.03331
G1 X107.058 Y111.931 E0.03340
G1 X92.007 Y96.880 E1.03331
G1 X92.695 Y96.880 E0.03340
G1 X107.746 Y111.931 E1.03331
G1 X108.434 Y111.931 E0.03340
G1 X93.383 Y96.880 E1.03331
G1 X94.071 Y96.880 E0.03340
G1 X109.122 Y111.931 E1.03331
G1 X109.810 Y111.931 E0.03340
G1 X94.759 Y96.880 E1.03331
G1 X95.447 Y96.880 E0.03340
G1 X110.498 Y111.931 E1.03331
G1 X111.186 Y111.931 E0.03340
G1 X96.135 Y96.880 E1.03331
G1 X96.823 Y96.880 E0.03340
G1 X111.874 Y111.931 E1.03331
G1 X112.563 Y111.931 E0.03340
G1 X97.511 Y96.880 E1.03331
G1 X98.199 Y96.880 E0.03340
G1 X113.251 Y111.931 E1.03331
G1 X113.939 Y111.931 E0.03340
G1 X98.887 Y96.880 E1.03331
G1 X99.575 Y96.880 E0.03340
G1 X114.627 Y111.931 E1.03331
G1 X115.315 Y111.931 E0.03340
G1 X100.264 Y96.880 E1.03331
G1 X100.952 Y96.880 E0.03340
G1 X116.003 Y111.931 E1.03331
G1 X116.691 Y111.931 E0.03340
G1 X101.640 Y96.880 E1.03331
G1 X102.328 Y96.880 E0.03340
G1 X117.379 Y111.931 E1.03331
G1 X118.067 Y111.931 E0.03340
G1 X103.016 Y96.880 E1.03331
G1 X103.704 Y96.880 E0.03340
G1 X118.755 Y111.931 E1.03331
G1 X119.443 Y111.931 E0.03340
G1 X104.392 Y96.880 E1.03331
G1 X105.080 Y96.880 E0.03340
G1 X120.131 Y111.931 E1.03331
G1 X120.819 Y111.931 E0.03340
G1 X105.768 Y96.880 E1.03331
G1 X106.456 Y96.880 E0.03340
G1 X121.507 Y111.931 E1.03331
G1 X122.195 Y111.931 E0.03340
G1 X107.144 Y96.880 E1.03331
G1 X107.832 Y96.880 E0.03340
G1 X122.883 Y111.931 E1.03331
G1 X123.571 Y111.931 E0.03340
G1 X108.520 Y96.880 E1.03331
G1 X109.208 Y96.880 E0.03340
G1 X124.259 Y111.931 E1.03331
G1 X124.947 Y111.931 E0.03340
G1 X109.896 Y96.880 E1.03331
G1 X110.584 Y96.880 E0.03340
G1 X125.635 Y111.931 E1.03331
G1 X126.323 Y111.931 E0.03340
G1 X111.272 Y96.880 E1.03331
G1 X111.960 Y96.880 E0.03340
G1 X127.011 Y111.931 E1.03331
G1 X127.699 Y111.931 E0.03340
G1 X112.648 Y96.880 E1.03331
G1 X113.336 Y96.880 E0.03340
G1 X128.387 Y111.931 E1.03331
G1 X129.076 Y111.931 E0.03340
G1 X114.024 Y96.880 E1.03331
G1 X114.712 Y96.880 E0.03340
G1 X132.846 Y115.014 E1.24492
G1 X132.846 Y114.325 E0.03340
G1 X115.400 Y96.880 E1.19768
G1 X116.089 Y96.880 E0.03340
